X:11
T:Child Grove
M:2/2
L:1/8
Q:1/4=112
O:Playford's Dancing Master, England
K:Bbmaj clef=treble
[||: "Gm"d2g2 g2a2 | "Gm"b4 a2g2 | "Cm"c'2b2 a2g2 | "Dm"a3g fed2 |
"Gm"d2g2 g2a2 | "Gm"b4 "F"a2d'2 | "Cm"c'3b "D7"abag \
|1 "Gm" g8 :|2 "Gm" g6 bc' |]
[||: "Bb"d'2b2 b2d'2 | "F"c'2a2 a2c'2 | "Gm"b2g2 gabg | "D7"a2 d4 bc' |
"Bb"d'2b2 b2d'2 | "Cm"c'3b abc'a | "Gm" b2ag "D7"a2g^f \
|1,2 "Gm" g6 bc' :|2 "Gm" g8 |]

